lib/preview/nrk-logo-preview-nrk-2.svg

<svg width="47" height="14" viewBox="0 0 47 14" fill="currentColor" xmlns="http://www.w3.org/2000/svg">
<path d="M0 12.9971V0.998237H3.93719V12.9971H0ZM9.29381 2.90793L11.5581 12.9971H7.24917L4.54549 0.998237H6.96218C7.51635 0.991044 8.05406 1.1864 8.4745 1.54754C8.89562 1.89353 9.18495 2.37384 9.29381 2.90793ZM12.1495 12.9971V0.998237H16.0867V12.9971H12.1495ZM19.0605 5.56125C18.6362 5.56538 18.2188 5.45438 17.8525 5.24011C17.4912 5.03127 17.1911 4.73111 16.9823 4.36975C16.7678 4.00348 16.6568 3.58591 16.661 3.16146C16.6561 2.73961 16.7672 2.32453 16.9823 1.96157C17.1933 1.60414 17.4931 1.30724 17.8525 1.09967C18.2189 0.885649 18.6362 0.774661 19.0605 0.778531C19.4822 0.773989 19.8971 0.885075 20.2602 1.09967C20.616 1.30906 20.9127 1.60571 21.122 1.96157C21.3368 2.32463 21.4479 2.73964 21.4433 3.16146C21.4473 3.58587 21.3363 4.00337 21.122 4.36975C20.9149 4.72952 20.6179 5.02943 20.2602 5.24011C19.8971 5.45512 19.4819 5.56624 19.0599 5.56125H19.0605ZM22.0516 12.9971V0.998237H25.9892V12.9971H22.0516ZM30.9737 7.55538C30.9848 7.56702 31.0693 7.70503 31.2272 7.96942C31.3851 8.23381 31.5906 8.57183 31.8439 8.98344C32.0974 9.39485 32.3649 9.8314 32.6463 10.2931C32.9278 10.7549 33.1926 11.1915 33.4408 11.6029C33.6881 12.0143 33.9697 12.4791 34.2857 12.9971H29.9598C29.6893 12.5578 29.4441 12.1606 29.2245 11.8057C29.0048 11.4508 28.7713 11.0677 28.5238 10.6565C28.2758 10.2456 28.0306 9.84568 27.7882 9.45661C27.5458 9.06754 27.3375 8.72676 27.1633 8.43421C26.9883 8.14146 26.8671 7.94427 26.7997 7.84268C26.6325 7.59059 26.5336 7.29944 26.5127 6.99769C26.5294 6.70808 26.6226 6.42812 26.7828 6.18626C26.8504 6.07359 26.9743 5.87357 27.1545 5.58628C27.3348 5.29898 27.546 4.9582 27.7882 4.56387C28.0304 4.16954 28.2756 3.76675 28.5238 3.35552C28.772 2.94429 29.0056 2.55838 29.2245 2.19785C29.4445 1.8377 29.6897 1.43773 29.9598 0.997962H34.2857L30.9396 6.45664C30.8361 6.61871 30.7777 6.80549 30.7706 6.99769C30.7818 7.19947 30.8522 7.39347 30.9731 7.55538H30.9737Z"/>
<path d="M41.1156 11.5456C41.3831 11.3161 41.6582 11.0776 41.9488 10.8191C42.3543 10.4587 42.7626 10.0672 43.1738 9.64483C43.5849 9.22243 43.9763 8.78314 44.348 8.32696C44.709 7.8855 45.0393 7.41976 45.3365 6.93304C45.6139 6.48063 45.8405 5.99901 46.0123 5.4969C46.1719 5.03479 46.2547 4.54965 46.2573 4.06076C46.2654 3.60419 46.1731 3.1514 45.9869 2.73442C45.8027 2.34061 45.5313 1.99393 45.1931 1.72068C44.8061 1.41413 44.3605 1.18989 43.8837 1.06173C43.2976 0.901535 42.6918 0.824749 42.0843 0.833639C41.6906 0.832598 41.2977 0.866519 40.91 0.93501C40.5412 1.0002 40.1791 1.09918 39.8284 1.23068C39.4941 1.35598 39.1695 1.50564 38.8572 1.67843L39.0765 3.14837C39.3442 2.969 39.6304 2.8189 39.9301 2.70063C40.2556 2.56997 40.592 2.4682 40.9354 2.3965C41.2853 2.32318 41.642 2.28637 41.9995 2.28668C42.3742 2.27905 42.7477 2.33038 43.1065 2.43875C43.3921 2.52619 43.6547 2.67627 43.8749 2.87804C44.0735 3.06315 44.2267 3.29152 44.3227 3.54543C44.4211 3.81316 44.4698 4.09656 44.4666 4.38177C44.4608 4.86048 44.3633 5.33365 44.1794 5.77568C43.9656 6.2948 43.6935 6.78795 43.3684 7.24563C42.9897 7.78335 42.5778 8.29685 42.135 8.78314C41.6619 9.30691 41.1466 9.83069 40.589 10.3545C40.0314 10.8782 39.4541 11.4105 38.8572 11.9511L39.0765 12.9987H46.3927L46.5955 11.5456H41.1156Z"/>
</svg>

<svg xmlns="http://www.w3.org/2000/svg" fill="currentColor" viewBox="0 0 47 14"><path d="M0 12.997V.998h3.937v12H0Zm9.294-10.09 2.264 10.09H7.25L4.545.998h2.417a2.276 2.276 0 0 1 1.513.55c.42.346.71.826.819 1.36Zm2.855 10.09V.998h3.938v12h-3.938Zm6.912-7.436a2.382 2.382 0 0 1-2.4-2.4 2.301 2.301 0 0 1 .321-1.2A2.41 2.41 0 0 1 20.26 1.1c.356.21.653.506.862.862.215.363.326.778.321 1.2a2.35 2.35 0 0 1-.321 1.208 2.4 2.4 0 0 1-.862.87 2.302 2.302 0 0 1-1.2.321Zm2.99 7.436V.998h3.938v12h-3.937Zm8.923-5.442c.01.012.095.15.253.414.158.265.364.603.617 1.014a316.488 316.488 0 0 1 1.597 2.62c.247.411.529.876.845 1.394H29.96c-.27-.44-.516-.836-.736-1.191-.22-.355-.453-.738-.7-1.15-.248-.41-.493-.81-.736-1.2-.242-.388-.45-.73-.625-1.022-.175-.293-.296-.49-.363-.591a1.747 1.747 0 0 1-.287-.845c.016-.29.11-.57.27-.812.067-.112.191-.312.371-.6a182.106 182.106 0 0 0 1.37-2.23l.7-1.158.736-1.2h4.326L30.94 6.457a1.08 1.08 0 0 0-.17.54c.012.202.082.396.203.558ZM41.116 11.546c.267-.23.542-.468.833-.727.405-.36.814-.752 1.225-1.174.41-.423.802-.862 1.174-1.318.361-.441.691-.907.989-1.394.277-.452.503-.934.675-1.436.16-.462.243-.947.245-1.436a3.117 3.117 0 0 0-.27-1.327 2.862 2.862 0 0 0-.794-1.013 3.624 3.624 0 0 0-1.31-.66 6.466 6.466 0 0 0-1.799-.227 6.648 6.648 0 0 0-1.174.101 6.11 6.11 0 0 0-1.082.296 7.294 7.294 0 0 0-.97.447l.219 1.47c.267-.179.553-.33.853-.447a5.98 5.98 0 0 1 1.005-.304c.35-.074.707-.11 1.064-.11.375-.008.749.043 1.107.152.286.087.549.237.769.439.199.185.352.414.448.667.098.268.147.552.144.837a3.747 3.747 0 0 1-.288 1.394 7.414 7.414 0 0 1-.81 1.47c-.38.537-.791 1.05-1.234 1.537a26.904 26.904 0 0 1-1.546 1.572 130.1 130.1 0 0 1-1.732 1.596l.22 1.048h7.316l.203-1.453h-5.48Z"/></svg>
